icons/filled/layout-navbar-collapse.svg

<svg xmlns="http://www.w3.org/2000/svg" width="24" height="24" viewBox="0 0 24 24" fill="currentColor"><path d="M18 3a3 3 0 0 1 2.995 2.824l.005 .176v12a3 3 0 0 1 -2.824 2.995l-.176 .005h-12a3 3 0 0 1 -2.995 -2.824l-.005 -.176v-12a3 3 0 0 1 2.824 -2.995l.176 -.005h12zm1 6h-14v9a1 1 0 0 0 .883 .993l.117 .007h12a1 1 0 0 0 .993 -.883l.007 -.117v-9zm-6.387 3.21l.094 .083l2 2a1 1 0 0 1 -1.32 1.497l-.094 -.083l-1.293 -1.292l-1.293 1.292a1 1 0 0 1 -1.32 .083l-.094 -.083a1 1 0 0 1 -.083 -1.32l.083 -.094l2 -2a1 1 0 0 1 1.32 -.083z"/></svg>

<svg xmlns="http://www.w3.org/2000/svg" width="24" height="24" fill="currentColor"><path d="M18 3a3 3 0 0 1 2.995 2.824L21 6v12a3 3 0 0 1-2.824 2.995L18 21H6a3 3 0 0 1-2.995-2.824L3 18V6a3 3 0 0 1 2.824-2.995L6 3zm1 6H5v9a1 1 0 0 0 .883.993L6 19h12a1 1 0 0 0 .993-.883L19 18zm-6.387 3.21.094.083 2 2a1 1 0 0 1-1.32 1.497l-.094-.083L12 14.415l-1.293 1.292a1 1 0 0 1-1.32.083l-.094-.083a1 1 0 0 1-.083-1.32l.083-.094 2-2a1 1 0 0 1 1.32-.083"/></svg>
